X:212
T:Home, Dearie, Home (2)
M:C|
L:1/4
Q:1/4=3D110
K:F
C|\
FF/F/ FF|F2 CC|DF EG|F3 C|
DE FF|B2 AA|AG GA|G2 AB|
cc AG|F2 FE|DF CA,|C3 C|
DE FG|AA GF|GF FF|F2 AB|
c2 AG|F2 AF|DF CA,|C3 C|
D2 DD|C2 FF|FF EF|G2 AB|
c2 AG|F2 AF|DF CA,|C3 C|
DE FG|A2 GF|GF FD|F3||
